X: 32248
T: Pibroch O'Donal Dhu
R: reel
M: 4/4
K: Amajor
ec~c2 fgaf|ec~c2 cBAc|ec~c2 fgaf|ecAc B2 A2|
ec~c2 fgaf|ec~c2 cBAc|B3 c d3 f|ecAc B2 A2||
ec~c2 fd~d2|ec~c2 cBAc|ec~c2 fd~d2|ecac B2 A2|
ec~c2 fd~d2|ec~c2 cBAc|~B3 c ~d3 f|ecac B2 A2||

